X: 6
T: Chanukah O Chanukah
Z: Gideon Klionsky
C: Mordkhe Rivesman (Yiddish lyrics)
M: 2/4
L: 1/8
Q: 1/4=144
K: Dm 
% Instruments and chords:
I: MIDI=gchordon % play chords
I: MIDI=program 72 % Clarinet for melody
I: MIDI=gchord fc % pattern of bass and chords
I: MIDI=bassprog 16 % Dulcimer for the bass note
I: MIDI=chordprog 35 % Electric bass for the chords
I: MIDI=transpose 0 % Play in the key written
%
x3 D | "Dm"  AAAA | dAAA | A2 GF | "Gm" G2 "Dm" F2 | AAAA | dAAA | 
A2 "Gm" GF | "C7" G2 "F" F2|| "F" FGAG | F2 FF | "C" G2 "C7" FE | "F" F4 |
FGAG | F2 FF | "A7" G2 FE | "Dm" D2 D2| A2 A2- | A2 D2 | A2 A2- |A2 D2 |
A2 AA | "Gm" B2 AG | "Dm"A4 | "A7"z4 |: "Dm" A2 AA | "Gm" B2 AG | "Dm" A2 AA | "Gm" B2 AG |
|1 "F" F2 FF | "C7" G2 FG | "F" A4 | "A7" z4 :|2 "Dm" F2 FF | "Gm" G2 "A7" FE | "Dm" D4- | D3 |]
%
W:(Oy), Khanike oy Khanike a yontef a sheyner,
W:A lustiker a freylekher nisht do nokh azoyner
W:Ale nakht in dreydlekh shpiln mir,
W:Zudig heyse latkes, est on a shir.
W:
W:Geshvinder, tsindt kinder di Khanike likhtlekh on,
W:> Zogt "Al Hanisim", loybt Got far di nisim,
W:> Un kumt gikher tantsn in kon.
W:
W:Yehudo hot fertriben dem soneh dem rotse'akh
W:Un hot in Beis HaMikdosh gezungen "Lamnatse'akh"
W:Di shtat Yerusholayim hot vider oyfgelebt
W:Un tsu a nayem leben hot yederer geshtrebt
W:
W:Deriber, dem gibor, Yehudo-haMakabi loybt hoykh
W: > Zol yeder bezunder, bezingen dem vunder
W: > Un lieben dos folk zolt ihr oykh
W:
W:
W:(English)
W:Oh, Hanukkah, Oh, Hanukkah come light the menorah
W:Let's have a party, we'll all dance the hora
W:Gather round the table, we'll give you a treat
W:Sevivonim to play with and lakes to eat
W:And while we are playing, the candles are burning low
W:  One for each night, they shed a sweet light
W:  To remind us of days long ago
W:
W:
W:(Hebrew Translation: Avraham Avrunin)
W:יְמֵי הַחֲנֻכָּה חֲנֻכַּת מִקְדָּשֵׁנוּ,
W:בְּגִיל וּבְשִׂמְחָה מְמַלְּאִים אֶת לִבֵּנוּ
W:לַיְלָה וָיוֹם סְבִיבוֹנֵנוּ יִסֹּב,
W:סֻפְגָּנִיּוֹת נֹאכַל בָּם לָרֹב
W:
W:הָאִירוּ, הַדְלִיקוּ נֵרוֹת חֲנֻכָּה רַבִּים
W:עַל הַנִּסִּים וְעַל הַנִּפְלָאוֹת אֲשֶׁר חוֹלְלוּ הַמַּכַּבִּים
W:
W:נִצְחוֹן הַמַּכַּבִּים נְסַפֵּר, נְזַמֵּרָה,
W:עַל הַיְּוָנִים אָז יָדָם כִּי גָּבֵרָה
W:יְרוּשָׁלַיִם שָׁבָה לִתְחִיָּה,
W:עַם יִשְׂרָאֵל עָשָׂה תּוּשִׁיָּה
W:
W:...הָאִירוּ, הַדְלִיקוּ

